X: 147106
T: The HILLS OF GLENORCHY
%R: jig
B: James Kerr "Merry Melodies" v.1 p.47 s.1 #6
Z: 2016 John Chambers <jc:trillian.mit.edu>
M: 6/8
L: 1/8
K: Em
ud |\
vB2vE EFE | BAB ud2uB | A2D DED | AFD FAd |\
B2E EFE | BAB d2e | dBd AFD | EFE E2 :|
uB |\
efe edB | efg gfe | ded dAF | d^cd fed |\
efe edB | efg fef | dBd AFD | EFE E2 |]

%%sep 1 1 500
%%sep 1 1 500

